setcps(100/60/4)

rytm [
   every 5 (density 0) $ degradeBy 0.1 $ track 1 $ n "0*16" # amp 4 (range 0 0.5 $ slow 1 perlin)
  ,every 5 (density 0) $ track 4 $ n "0*2"
  ,("e" ~>) $ track 9 $ n "0(9,16)"
  ,every 5 (density 0) $ track 10 $ n "0*2"
  ,track 12
  $ within (0.0, 0.5) (ply 2)
   $ (# fltr 5 (range 0.3 1 $ slow 2 perlin))
  $ (# fltr 6 (range 0.0 0.1 $ slow 4 rand))
  $ euclid 5 8
  $ slow 8 $ n ("0 .. 7" |- 24) # amp 4 0.8
  ]

hush
